modules/coreui-icons-free/icons/battery-slash.svg

<!-- Generated by IcoMoon.io -->
<svg version="1.1" xmlns="http://www.w3.org/2000/svg" width="24" height="24" viewBox="0 0 24 24">
<title>battery-slash</title>
<path d="M20.25 8.25v-2.644c-0.006-0.612-0.504-1.106-1.117-1.106-0.003 0-0.006 0-0.009 0h-11.443l1.5 1.5h9.568v3.75h3v4.875h-2.25v1.5h3.75v-7.875z"></path>
<path d="M7.061 6l-5.25-5.25h-1.061v1.061l2.689 2.689h-1.565c-0.002-0-0.005-0-0.008-0-0.613 0-1.111 0.494-1.117 1.105v13.164c0.006 0.612 0.504 1.106 1.117 1.106 0.003 0 0.006 0 0.009-0h16.94l3.375 3.375h1.061v-1.061l-10.755-10.755zM2.249 18.375v-12.375h2.69l12.375 12.375z"></path>
</svg>

<svg xmlns="http://www.w3.org/2000/svg" width="24" height="24" viewBox="0 0 24 24"><path d="M20.25 8.25V5.606A1.117 1.117 0 0019.133 4.5H7.681l1.5 1.5h9.568v3.75h3v4.875h-2.25v1.5h3.75V8.25zM7.061 6L1.811.75H.75v1.061L3.439 4.5H1.866c-.613 0-1.111.494-1.117 1.105v13.164a1.117 1.117 0 001.117 1.106h16.949l3.375 3.375h1.061v-1.061L12.496 11.434zM2.249 18.375V6h2.69l12.375 12.375z"/></svg>
